X: 28
M:2/4
L:1/16
K:A
vA,CEC A,AcA|EGBG Acec|dfdB cecA|((3BcB) ((3"4"AGF) ((3EFE) ((3DCB,)|
|:vceae cefe|ceae dcBA|agae fgae|((3gba) ((3gfe) ((3efe) ((3dcB)|
ceae cefe|ceae dcBA|agae fdBG|A2c2A2z2:|


